X:1
T:He Leads Me Still
T:He Leads Me Still
T:Charles Teller
T:Charles Teller & Charles H. Gabriel, 1910
T:Public Domain Courtesy of the Cyber Hymnal™
T:Public Domain Courtesy of the Cyber Hymnal™
C:Charles Teller
Z:Public Domain
Z:Courtesy of the Cyber Hymnal™
%%score ( 1 2 ) ( 3 4 )
L:1/8
Q:1/4=92
M:4/4
K:Bb
V:1 treble 
V:2 treble 
V:3 bass 
V:4 bass 
V:1
 [B,D][CE][C=E] | [DF]3 [Fd] [Ec][DB][DB][B,D] | [CE]4- [CE][B,D][A,C][B,D] | %3
w: 1.~I know the|love and grace of Him whose|heart * ’Midst all my|
w: 2.~When tri- als|come, with doubts a thou- sand|strong, * When drear- y|
w: 3.~I love to|think of Him while here be-|low, * Of how, for|
w: 4.~Some day un-|known I’ll see His bless- èd|face, * The vic- t’ry|
 [CE]3 [DF] [EG][EA] [EG]>C | F4- [DF][B,D][C_E][^C=E] | [DF]3 [Fd] [Ec][DB][FB]F | %6
w: cares and sor- rows bears a|part; Tho’ fears and pas-|* sions strive to rule my|
w: grows the way, and dark, and|long, His whis- pered words|* thro’ all my be- ing|
w: me, He suf- fered pain and|woe; My peace and joy|* He bought on Cal- v’ry’s|
w: mine, thro’ His re- deem- ing|grace; Then, oh, what joy|* e- ter- ni- ty to|
 ([FA]2 [EG]3) GA[GB] | d3 [DB] [Ge]"^riten."[Fd] [Fd]>[Ec] | B4- [DB] ||"^Refrain" BAB | %10
w: will, * I know that|Je- sus loves and leads me|still. *||
w: thrill, * For then I|know He loves and leads me|still. He|* leads me|
w: hill, * And well I|know He loves and leads me|still. *||
w: fill * With praise, be-|cause He loves and leads me|still. *||
 (z [Ec])AG _G x3 | z [DF]FB c x3 | z [Gd]dc Gd x3 | c4- [_Ec][DF][DB][Ec] | %14
w: ||||
w: * still, He leads|* me still, *|* Thro’- out the storm|and dark- ness of the|
w: ||||
w: ||||
 [Fd]4- [Fd][Fd][Ge][_Af] | [EG]4- [EG][EG][FA][GB] | [Fe]3 [DB] [Ge][Fd] !fermata![Fd]>[Ec] | %17
w: |||
w: * * night; I walk|by * faith, for ’tis|His will, And well I know|
w: |||
w: |||
 [DB]4- [DB] |] %18
w: |
w: that *|
w: |
w: |
V:2
 x3 | x8 | x8 | x15/2 C/ | D2 =E2 x4 | x7 F | x8 | (FFF) x5 | D F =E _E x || x3 | c4- E E E x | %11
 F4- D D D x | (d3 G G) =E2 E2 | F E =E E x4 | x8 | x8 | x8 | x5 |] %18
V:3
 z3 | (B,,F, B,2 F,4) | A,4- [F,A,] z3 | F,,C, F,2- [F,A,]2 E,2 | %4
w: ||He *||
 ([D,B,][=B,,^G,][C,A,][F,,A,] [_B,,=B,]) z3 | (B,,F,) B,2 F,2 [D,B,]2 | B,4 [_E,B,] z [=E,B,^C]2 | %7
w: ||leads * *|
 [F,B,D][F,B,D][F,B,D] z3 [F,,A,]2 | (B,_A,G,_G, [B,,F,]) || z3 | z [F,A,][F,A,][F,A,] [F,A,] z3 | %11
w: |||me still, He leads|
 z [B,,B,][B,,B,][B,,B,] [B,,B,] z3 | z [G,B,][G,B,][G,B,] [C,B,]2 [C,B,]2 x | %13
w: me still, Thro’- out|the storm and dark- ness|
 [F,A,][^F,A,][G,B,][C,B,] [=F,A,] z3 | z [B,,B,][B,,B,][B,,B,] [B,,B,] z3 | %15
w: of the night; I walk|by faith, for ’tis|
 z [E,B,][E,B,][E,B,] [E,B,] z3 | z [F,B,][F,B,] z3 !fermata![F,A,]>F, | [B,,F,]4- [B,,F,] |] %18
w: His will I know|leads me still *||
V:4
 x3 | B,,8 | C,F,,A,,C, x4 | F,,6 x2 | x8 | B,,6 x2 | =E, G, B, G, x4 | x8 | B,,4 x || x3 | x8 | %11
 x8 | x9 | x8 | x8 | x8 | x15/2 F,/ | x5 |] %18

